modules/themify-icons/icons/layout-list-thumb.svg

<?xml version="1.0" encoding="utf-8"?>
<!-- Generated by IcoMoon.io -->
<!DOCTYPE svg PUBLIC "-//W3C//DTD SVG 1.1//EN" "http://www.w3.org/Graphics/SVG/1.1/DTD/svg11.dtd">
<svg version="1.1" xmlns="http://www.w3.org/2000/svg" xmlns:xlink="http://www.w3.org/1999/xlink" width="17" height="17" viewBox="0 0 17 17">
<g>
</g>
	<path d="M15 4h-9v-1h9v1zM6 5v1h11v-1h-11zM0 2h5v5h-5v-5zM1 6h3v-3h-3v3zM15 10h-9v1h9v-1zM6 13h11v-1h-11v1zM0 9h5v5h-5v-5zM1 13h3v-3h-3v3z" fill="#000000" />
</svg>

<svg xmlns="http://www.w3.org/2000/svg" width="17" height="17"><path d="M15 4H6V3h9v1zM6 5v1h11V5H6zM0 2h5v5H0V2zm1 4h3V3H1v3zm14 4H6v1h9v-1zm-9 3h11v-1H6v1zM0 9h5v5H0V9zm1 4h3v-3H1v3z"/></svg>
